fs/math_symbols_48_filled.svg

<svg viewBox="0 0 48 48" fill="none" xmlns="http://www.w3.org/2000/svg" height="1em" width="1em">
  <path d="M12.5 4C13.3284 4 14 4.67157 14 5.5V11H19.5C20.3284 11 21 11.6716 21 12.5C21 13.3284 20.3284 14 19.5 14H14V19.5C14 20.3284 13.3284 21 12.5 21C11.6716 21 11 20.3284 11 19.5V14H5.5C4.67157 14 4 13.3284 4 12.5C4 11.6716 4.67157 11 5.5 11H11V5.5C11 4.67157 11.6716 4 12.5 4ZM28.498 11C27.6696 11 26.998 11.6716 26.998 12.5C26.998 13.3284 27.6696 14 28.498 14H42.498C43.3265 14 43.998 13.3284 43.998 12.5C43.998 11.6716 43.3265 11 42.498 11H28.498ZM27.002 35.5C27.002 34.6716 27.6735 34 28.502 34H42.502C43.3304 34 44.002 34.6716 44.002 35.5C44.002 36.3284 43.3304 37 42.502 37H28.502C27.6735 37 27.002 36.3284 27.002 35.5ZM35.5 32C36.6046 32 37.5 31.1046 37.5 30C37.5 28.8954 36.6046 28 35.5 28C34.3954 28 33.5 28.8954 33.5 30C33.5 31.1046 34.3954 32 35.5 32ZM37.5 41C37.5 42.1046 36.6046 43 35.5 43C34.3954 43 33.5 42.1046 33.5 41C33.5 39.8954 34.3954 39 35.5 39C36.6046 39 37.5 39.8954 37.5 41ZM4.18934 27.1893C4.77513 26.6036 5.72487 26.6036 6.31066 27.1893L12.5 33.3787L18.6893 27.1893C19.2751 26.6036 20.2249 26.6036 20.8107 27.1893C21.3964 27.7751 21.3964 28.7249 20.8107 29.3107L14.6213 35.5L20.8107 41.6893C21.3964 42.2751 21.3964 43.2249 20.8107 43.8107C20.2249 44.3964 19.2751 44.3964 18.6893 43.8107L12.5 37.6213L6.31066 43.8107C5.72487 44.3964 4.77513 44.3964 4.18934 43.8107C3.60355 43.2249 3.60355 42.2751 4.18934 41.6893L10.3787 35.5L4.18934 29.3107C3.60355 28.7249 3.60355 27.7751 4.18934 27.1893Z" fill="#212121"/>
</svg>

<svg viewBox="0 0 48 48" fill="none" xmlns="http://www.w3.org/2000/svg" height="1em" width="1em">
  <path d="M12.5 4A1.5 1.5 0 0 1 14 5.5V11h5.5a1.5 1.5 0 0 1 0 3H14v5.5a1.5 1.5 0 0 1-3 0V14H5.5a1.5 1.5 0 0 1 0-3H11V5.5A1.5 1.5 0 0 1 12.5 4Zm15.998 7a1.5 1.5 0 0 0 0 3h14a1.5 1.5 0 1 0 0-3h-14Zm-1.496 24.5a1.5 1.5 0 0 1 1.5-1.5h14a1.5 1.5 0 0 1 0 3h-14a1.5 1.5 0 0 1-1.5-1.5ZM35.5 32a2 2 0 1 0 0-4 2 2 0 0 0 0 4Zm2 9a2 2 0 1 1-4 0 2 2 0 0 1 4 0ZM4.19 27.19a1.5 1.5 0 0 1 2.12 0l6.19 6.189 6.19-6.19a1.5 1.5 0 0 1 2.12 2.122L14.622 35.5l6.19 6.19a1.5 1.5 0 0 1-2.122 2.12l-6.19-6.188-6.19 6.19a1.5 1.5 0 0 1-2.12-2.122l6.189-6.189-6.19-6.19a1.5 1.5 0 0 1 0-2.12Z" fill="#212121"/>
</svg>
